X: 7
T: Polska fr\aan Orsa (#7)
S: Bruce Sagan's "scanfolk" session archive
F: https://app.box.com/s/u6iiren0igvsukrhdducy7orq72jayq8/file/999707087472
Z: 2021 John Chambers <jc:trillian.mit.edu>
R: polska
M: 3/4
L: 1/16
K: Am
|:\
A4 (e2g2) Tf3e | (d^cd2) (ef)ed Tc3B | A4 (e2f2) (fa)fd | (de)(d"#"c) A6 (A2- :|
|: a3)(g b3)a a4 | (gb3) (Ta3g) g3e | (fefe) (g2e2) Tf3d | (3d4 ^c4 _B4 A4 |
{A}a3(g b3)a a4 | (gb3) (Ta3g) g3e | (fefe) (g2f2) e3d | (T^c2e2) d6 [1 (f2 :|2 z2 |]
